X: 1
T: Paddy Taylor's
M: 6/8
L: 1/8
R: jig
K: Amix
ABA g3 | a3 efg | f3 fge | cAG EFG |
ABA g3 | aba efg | fed cAG | [1 Adc dcB :| [2 Adc d2e ||
f2d edc | ded cAG | AGE (3DDD D | fed ecA | 
fed edc | ded cde | (3fga f gec | [1 edc deg :| [2 edc dcB ||
